!!!!SEGMENT: pl-sa--l-1636--010_anonim-keyboard-piece.krn
!!!id: 17xx:717
!!!COM: Anonim
!!!OTL: Keyboard piece
!!!PDT:
!!!SMS-siglum: PL-SA
!!!SMS-shelfmark: L 1636
!!!NIFC-rismID: 1001076394
!!!URL-scan: http://repozytorium.nifc.pl/skany/pl-sa-nut--l1636
!!!ONB-nifc: 4r, skan 0007, s. 6
!!!SMS-variant:
!!!SMS-altvar:
**kern	**kern
*part2	*part1
*staff2	*staff1
*clefF4	*clefC1
*k[]	*k[]
*M2/2	*M2/2
*met(c|)	*met(c|)
=1	=1
*all\right	*all\right
1D 1AA 1DD	1a 1f 1d
=2	=2
*	*^
1C#X	2a/	1e
.	2g/	.
=3	=3	=3
*	*	*2\right
1D 1DD	1f	2e\
.	.	2d\
=4	=4	=4
[1A 1AA	1e	2d\
.	.	2c#X\
*	*v	*v
=5	=5
*^	*
2A/]	1BB-X	1d
[2G/	.	.
=6	=6	=6
2G/]	1AA	4c#X/
.	.	4A/
4F/	.	[2d/
8E/L	.	.
8D/J	.	.
*v	*v	*
=7	=7
*	*^
1E 1AA	4d/]	2ryy
!	!LO:TX:b:t=P:problem:♯ below	!
.	8c#X/L	.
.	8B/J	.
.	2c#/	4A\
.	.	4G\
*	*v	*v
=8	=8
!LO:TX:a:t=P:problem:kreska taktowa :||:	!LO:TX:a:t=P:problem:kreska taktowa :||:
1D 1AA 1DD	1d 1A 1F#X
==	==
*-	*-
!!!system-decoration: s1,s2
!!!ENC:Andrzej Borzym
!!!END:2020-06-11
!!!ENC: Marta Lawrence
!!!END: 2020-12-07
